Sources/FrostedUI/Resources/Icons.xcassets/cartRemove12.imageset/cart-remove-12.svg

<svg width="12" height="12" viewBox="0 0 12 12" fill="none" xmlns="http://www.w3.org/2000/svg" data-fui-icon="true">
  <path
    d="M1.13477 0.625C1.84979 0.625 2.46622 1.12992 2.60645 1.83105L3.57422 6.67383C3.59756 6.79055 3.70037 6.87478 3.81934 6.875H8.91699C9.03758 6.875 9.14123 6.78855 9.16309 6.66992L9.8877 2.73926C9.96273 2.33192 10.3534 2.0627 10.7607 2.1377C11.1681 2.21273 11.4373 2.60341 11.3623 3.01074L10.6387 6.94238C10.5057 7.66327 9.94195 8.21169 9.24316 8.34375C9.62306 8.58842 9.875 9.01453 9.875 9.5C9.875 10.2594 9.25941 10.875 8.5 10.875C7.74059 10.875 7.125 10.2594 7.125 9.5C7.125 9.03444 7.35692 8.62375 7.71094 8.375H4.78906C5.14307 8.62375 5.375 9.03444 5.375 9.5C5.375 10.2594 4.75938 10.875 4 10.875C3.24062 10.875 2.625 10.2594 2.625 9.5C2.625 8.9863 2.9069 8.53879 3.32422 8.30273C2.71406 8.12252 2.23349 7.61768 2.10352 6.96777L1.13477 2.125H0.875C0.460786 2.125 0.125 1.78921 0.125 1.375C0.125 0.960786 0.460786 0.625 0.875 0.625H1.13477ZM4 9.375C3.93098 9.375 3.875 9.43097 3.875 9.5C3.875 9.56903 3.93098 9.625 4 9.625C4.06902 9.625 4.125 9.56903 4.125 9.5C4.125 9.43097 4.06902 9.375 4 9.375ZM8.5 9.375C8.43099 9.375 8.375 9.43099 8.375 9.5C8.375 9.56901 8.43099 9.625 8.5 9.625C8.56901 9.625 8.625 9.56901 8.625 9.5C8.625 9.43099 8.56901 9.375 8.5 9.375ZM6.99414 1.82031C7.28706 1.52778 7.76192 1.52754 8.05469 1.82031C8.34746 2.11308 8.34722 2.58794 8.05469 2.88086L7.43555 3.5L8.05469 4.11914C8.34722 4.41206 8.34746 4.88692 8.05469 5.17969C7.76192 5.47246 7.28706 5.47222 6.99414 5.17969L6.375 4.56055L5.75586 5.17969C5.46294 5.47222 4.98808 5.47246 4.69531 5.17969C4.40254 4.88692 4.40278 4.41206 4.69531 4.11914L5.31445 3.5L4.69531 2.88086C4.40278 2.58794 4.40254 2.11308 4.69531 1.82031C4.98808 1.52754 5.46294 1.52778 5.75586 1.82031L6.375 2.43945L6.99414 1.82031Z"
    fill="currentColor"
  />
</svg>

<svg xmlns="http://www.w3.org/2000/svg" width="12" height="12" fill="none" data-fui-icon="true" viewBox="0 0 12 12"><path fill="currentColor" d="M1.135.625c.715 0 1.331.505 1.471 1.206l.968 4.843a.25.25 0 0 0 .245.201h5.098a.25.25 0 0 0 .246-.205l.725-3.93a.75.75 0 1 1 1.474.27l-.723 3.932a1.75 1.75 0 0 1-1.396 1.402 1.373 1.373 0 0 1-.743 2.531 1.375 1.375 0 0 1-.79-2.5H4.79a1.375 1.375 0 1 1-1.465-.072 1.75 1.75 0 0 1-1.221-1.335l-.97-4.843H.876a.75.75 0 0 1 0-1.5zM4 9.375a.125.125 0 1 0 0 .25.125.125 0 0 0 0-.25m4.5 0a.125.125 0 1 0 0 .25.125.125 0 0 0 0-.25M6.994 1.82a.75.75 0 0 1 1.06 1.06l-.618.62.619.62a.75.75 0 0 1-1.06 1.06l-.62-.62-.62.62a.75.75 0 0 1-1.06-1.06l.62-.62-.62-.62a.75.75 0 0 1 1.06-1.06l.62.62z"/></svg>
